X:1
T:Title
%%score { 1 | 2 }
L:1/8
M:3/4
K:F
V:1 treble nm="Grand Piano"
V:2 bass 
V:1
 z2 z2[Q:1/4=94] F>G | A3 A cA | [FA]2 [EG]2 [EG]>[FA] | [GB]3 [Bd] [Ac][GB] |[M:2/4] A4 | %5
[M:1/4] A>B |[M:3/4] c3 A GF | [DF]2 [DB]2 [Fd][Fd] | [Fc]3 [Fc] [EB][EG] |[M:2/4] F4 | %10
[M:1/4] A>B |[M:3/4] c3 A dc | [Ec]2 [EB]2 [EG]>[FA] | [GB]3 [GB] [Ac][GB] |[M:2/4] A4 | %15
[M:1/4] A>B |[M:3/4] c3 A GF | [DB]2 [Fd]2 [Fd][Fd] | [Fc]3 [Fc] [EB][EG] |[M:2/4] F4 |] %20
V:2
 z2 z2 [F,A,]>[F,B,F] | [F,CF]3 [F,CF] [F,A,F][F,CF] | [C,C]2 [C,C]2 [C,C]>[C,C] | %3
 [C,C]3 [C,C] [C,C][C,C] |[M:2/4] [F,CF]4 |[M:1/4] [F,CF]>[F,B,G] | %6
[M:3/4] [F,A,F]3 [F,CF] [F,B,E][F,A,] | [B,,B,]2 [B,,F,]2 [B,,B,][B,,B,] | %8
 [C,A,]3 [C,A,] [C,C][C,B,] |[M:2/4] [F,A,]4 |[M:1/4] [F,F]>[F,G,F] | %11
[M:3/4] [F,A,F]3 [F,CF] [F,B,F][F,A,F] | [C,G,]2 [C,G,]2 [C,C]>[C,C] | [C,C]3 [C,C] [C,C][C,C] | %14
[M:2/4] [F,CF]4 |[M:1/4] [F,CF]>[F,B,G] |[M:3/4] [F,A,F]3 [F,CF] [F,B,F][F,A,] | %17
 [B,,F,]2 [B,,B,]2 [B,,B,][B,,B,] | [C,A,]3 [C,A,] [C,C][C,B,] |[M:2/4] [F,A,]4 |] %20

